juniorguru/images/logos/engeto.svg

<?xml version="1.0" encoding="UTF-8"?>
<svg id="svg847" class="sc-clGIgy fAglPS" width="946.74" height="253.49" version="1.1" viewBox="0 0 946.74 253.49" xmlns="http://www.w3.org/2000/svg" xmlns:cc="http://creativecommons.org/ns#" xmlns:dc="http://purl.org/dc/elements/1.1/" xmlns:rdf="http://www.w3.org/1999/02/22-rdf-syntax-ns#">
 <metadata id="metadata851">
  <rdf:RDF>
   <cc:Work rdf:about="">
    <dc:format>image/svg+xml</dc:format>
    <dc:type rdf:resource="http://purl.org/dc/dcmitype/StillImage"/>
    <dc:title>ssmain-engeto</dc:title>
   </cc:Work>
  </rdf:RDF>
 </metadata>
 <defs id="defs835">
  <style id="style833">.face{fill-rule:evenodd;}.mask{fill:#00a4ff;}</style>
 </defs>
 <title id="title837">ssmain-engeto</title>
 <g id="Layer_2" transform="translate(2.4476e-5)" data-name="Layer 2">
  <g id="Layer_1-2" data-name="Layer 1">
   <path id="path839" d="m373.06 100.4h10.94v70.2h48.85v-16.44h-32.3v-19h32.28v-16.47h-32.28v-18.29h32.28v-16.4h-59.77zm157 0h10.81v36.16l-69.11-52.56v86.6h16.45v-50.28l69.09 50.28v-86.6h-27.25zm104 40.75h10.8v12a27.21 27.21 0 0 1-10.8 2.21 28.54 28.54 0 0 1-20.18-8.28 28.51 28.51 0 0 1-6.08-9 28.71 28.71 0 0 1 0-22.09 28.53 28.53 0 0 1 6.08-9 28.82 28.82 0 0 1 9.09-6.14 27.28 27.28 0 0 1 11.03-2.29 28 28 0 0 1 14.73 4.17l8.71-14a44.48 44.48 0 0 0-23.44-6.61 42.93 42.93 0 0 0-17.48 3.56 45.55 45.55 0 0 0-23.88 23.88 44.74 44.74 0 0 0 0 35 46.21 46.21 0 0 0 9.65 14.23 45.1 45.1 0 0 0 14.23 9.58 43.89 43.89 0 0 0 17.48 3.46 44.62 44.62 0 0 0 7.68-0.61 42 42 0 0 0 6.68-1.77 52.1 52.1 0 0 0 6.33-2.82c2.09-1.11 4.27-2.36 6.56-3.76v-38.29h-27.25zm64.68 29.45h48.84v-16.44h-32.29v-19h32.27v-16.47h-32.27v-18.29h32.27v-16.4h-48.84zm77.7-69.95h24.79v69.95h16.44v-69.95h24.43v-16.57h-65.68zm166.76 8.91a45.85 45.85 0 0 0-9.63-14.24 45.13 45.13 0 0 0-14.23-9.57 44.08 44.08 0 0 0-17.5-3.51 42.77 42.77 0 0 0-17.36 3.56 45.55 45.55 0 0 0-23.88 23.88 42.76 42.76 0 0 0-3.6 17.32 43.31 43.31 0 0 0 3.56 17.51 45.45 45.45 0 0 0 23.88 23.85 42.61 42.61 0 0 0 17.38 3.64 43.1 43.1 0 0 0 17.5-3.56 45.32 45.32 0 0 0 23.86-23.85 44.74 44.74 0 0 0 0-35m-15.18 28.49a28.28 28.28 0 0 1-15.1 15.1 28.71 28.71 0 0 1-22.09 0 28.46 28.46 0 0 1-15.1-15.1 28.83 28.83 0 0 1 0-22.09 28.64 28.64 0 0 1 15.1-15.1 28.71 28.71 0 0 1 22.09 0 28.46 28.46 0 0 1 15.1 15.11 28.71 28.71 0 0 1 0 22.09"/>
   <path id="path841" class="face" d="m246.87 19.41v20a144.31 144.31 0 0 1 57.6 115.23v7.36c0 4.81-9.6 15.35-36 24.73-28.59 10.14-66.93 15.72-108 15.72s-79.38-5.58-108-15.72c-26.44-9.38-36-19.92-36-24.73v-7.31a144.31 144.31 0 0 1 57.59-115.27v-20a160.33 160.33 0 0 0-74.06 135.23v7.35c0 16.61 20.06 31.55 52.05 41.95a82.29 82.29 0 0 0 75.5 49.54h65.83a82.29 82.29 0 0 0 75.5-49.54c32-10.4 52.05-25.34 52.05-41.95v-7.31a160.33 160.33 0 0 0-74.06-135.28m-53.49 217.59h-65.83a65.76 65.76 0 0 1-53.09-27c24.86 5.61 54.36 8.86 86 8.86s61.14-3.25 86-8.86a65.76 65.76 0 0 1-53.09 27"/>
   <path id="path843" class="mask" d="m276.49 117.72v-1.12c0-21.22-17.83-38.42-39.83-38.42h-152.39c-22 0-39.83 17.2-39.83 38.42v1.12s-0.64 13 22.69 32c26.51 21.6 59.93 32.39 93.35 32.39s66.84-10.79 93.34-32.39c23.34-19 22.67-32 22.67-32m-162.93 22.17a16.46 16.46 0 1 1 16.44-16.46 16.46 16.46 0 0 1-16.46 16.46m93.81 0a16.46 16.46 0 1 1 16.46-16.46 16.46 16.46 0 0 1-16.46 16.46m23.06-139.89h-16.41v16.46h-107v-16.46h-16.48v32.92h139.89z"/>
  </g>
 </g>
</svg>

<?xml version="1.0" encoding="UTF-8" standalone="no"?>
<svg
   xmlns:dc="http://purl.org/dc/elements/1.1/"
   xmlns:cc="http://creativecommons.org/ns#"
   xmlns:rdf="http://www.w3.org/1999/02/22-rdf-syntax-ns#"
   xmlns:svg="http://www.w3.org/2000/svg"
   xmlns="http://www.w3.org/2000/svg"
   xmlns:sodipodi="http://sodipodi.sourceforge.net/DTD/sodipodi-0.dtd"
   xmlns:inkscape="http://www.inkscape.org/namespaces/inkscape"
   class="sc-clGIgy fAglPS"
   viewBox="0 0 946.74458 253.49001"
   version="1.1"
   id="svg847"
   sodipodi:docname="engeto.svg"
   width="946.74457"
   height="253.49001"
   inkscape:version="1.0.2 (e86c8708, 2021-01-15)">
  <metadata
     id="metadata851">
    <rdf:RDF>
      <cc:Work
         rdf:about="">
        <dc:format>image/svg+xml</dc:format>
        <dc:type
           rdf:resource="http://purl.org/dc/dcmitype/StillImage" />
        <dc:title>ssmain-engeto</dc:title>
      </cc:Work>
    </rdf:RDF>
  </metadata>
  <sodipodi:namedview
     pagecolor="#ffffff"
     bordercolor="#666666"
     borderopacity="1"
     objecttolerance="10"
     gridtolerance="10"
     guidetolerance="10"
     inkscape:pageopacity="0"
     inkscape:pageshadow="2"
     inkscape:window-width="1382"
     inkscape:window-height="847"
     id="namedview849"
     showgrid="false"
     fit-margin-top="0"
     fit-margin-left="0"
     fit-margin-right="0"
     fit-margin-bottom="0"
     inkscape:zoom="0.75205442"
     inkscape:cx="473.37002"
     inkscape:cy="126.725"
     inkscape:window-x="58"
     inkscape:window-y="25"
     inkscape:window-maximized="1"
     inkscape:current-layer="svg847" />
  <defs
     id="defs835">
    <style
       id="style833">.face{fill-rule:evenodd;}.mask{fill:#00a4ff;}</style>
  </defs>
  <title
     id="title837">ssmain-engeto</title>
  <g
     id="Layer_2"
     data-name="Layer 2"
     transform="translate(2.4476078e-5)">
    <g
       id="Layer_1-2"
       data-name="Layer 1">
      <path
         d="M 373.06,100.4 H 384 v 70.2 h 48.85 v -16.44 h -32.3 v -19 h 32.28 V 118.69 H 400.55 V 100.4 h 32.28 V 84 h -59.77 z m 157,0 h 10.81 v 36.16 L 471.76,84 v 86.6 h 16.45 V 120.32 L 557.3,170.6 V 84 h -27.25 z m 104,40.75 h 10.8 v 12 a 27.21,27.21 0 0 1 -10.8,2.21 28.54,28.54 0 0 1 -20.18,-8.28 28.51,28.51 0 0 1 -6.08,-9 28.71,28.71 0 0 1 0,-22.09 28.53,28.53 0 0 1 6.08,-9 28.82,28.82 0 0 1 9.09,-6.14 27.28,27.28 0 0 1 11.03,-2.29 28,28 0 0 1 14.73,4.17 l 8.71,-14 A 44.48,44.48 0 0 0 634,82.12 a 42.93,42.93 0 0 0 -17.48,3.56 45.55,45.55 0 0 0 -23.88,23.88 44.74,44.74 0 0 0 0,35 46.21,46.21 0 0 0 9.65,14.23 45.1,45.1 0 0 0 14.23,9.58 43.89,43.89 0 0 0 17.48,3.46 44.62,44.62 0 0 0 7.68,-0.61 42,42 0 0 0 6.68,-1.77 52.1,52.1 0 0 0 6.33,-2.82 c 2.09,-1.11 4.27,-2.36 6.56,-3.76 V 124.58 H 634 Z m 64.68,29.45 h 48.84 v -16.44 h -32.29 v -19 h 32.27 V 118.69 H 715.29 V 100.4 h 32.27 V 84 h -48.84 z m 77.7,-69.95 h 24.79 v 69.95 h 16.44 V 100.65 H 842.1 V 84.08 h -65.68 z m 166.76,8.91 a 45.85,45.85 0 0 0 -9.63,-14.24 45.13,45.13 0 0 0 -14.23,-9.57 44.08,44.08 0 0 0 -17.5,-3.51 42.77,42.77 0 0 0 -17.36,3.56 45.55,45.55 0 0 0 -23.88,23.88 42.76,42.76 0 0 0 -3.6,17.32 43.31,43.31 0 0 0 3.56,17.51 45.45,45.45 0 0 0 23.88,23.85 42.61,42.61 0 0 0 17.38,3.64 43.1,43.1 0 0 0 17.5,-3.56 45.32,45.32 0 0 0 23.86,-23.85 44.74,44.74 0 0 0 0,-35 M 928,138.08 a 28.28,28.28 0 0 1 -15.1,15.1 28.71,28.71 0 0 1 -22.09,0 28.46,28.46 0 0 1 -15.1,-15.1 28.83,28.83 0 0 1 0,-22.09 28.64,28.64 0 0 1 15.1,-15.1 28.71,28.71 0 0 1 22.09,0 28.46,28.46 0 0 1 15.1,15.11 28.71,28.71 0 0 1 0,22.09"
         id="path839" />
      <path
         class="face"
         d="m 246.87,19.41 v 20 a 144.31,144.31 0 0 1 57.6,115.23 V 162 c 0,4.81 -9.6,15.35 -36,24.73 -28.59,10.14 -66.93,15.72 -108,15.72 -41.07,0 -79.38,-5.58 -108,-15.72 -26.44,-9.38 -36,-19.92 -36,-24.73 v -7.31 A 144.31,144.31 0 0 1 74.06,39.42 v -20 A 160.33,160.33 0 0 0 0,154.65 V 162 c 0,16.61 20.06,31.55 52.05,41.95 a 82.29,82.29 0 0 0 75.5,49.54 h 65.83 a 82.29,82.29 0 0 0 75.5,-49.54 c 32,-10.4 52.05,-25.34 52.05,-41.95 v -7.31 A 160.33,160.33 0 0 0 246.87,19.41 M 193.38,237 H 127.55 A 65.76,65.76 0 0 1 74.46,210 c 24.86,5.61 54.36,8.86 86,8.86 31.64,0 61.14,-3.25 86,-8.86 a 65.76,65.76 0 0 1 -53.09,27"
         id="path841" />
      <path
         class="mask"
         d="m 276.49,117.72 v -1.12 c 0,-21.22 -17.83,-38.42 -39.83,-38.42 H 84.27 c -22,0 -39.83,17.2 -39.83,38.42 v 1.12 c 0,0 -0.64,13 22.69,32 26.51,21.6 59.93,32.39 93.35,32.39 33.42,0 66.84,-10.79 93.34,-32.39 23.34,-19 22.67,-32 22.67,-32 M 113.56,139.89 A 16.46,16.46 0 1 1 130,123.43 16.46,16.46 0 0 1 113.54,139.89 m 93.81,0 a 16.46,16.46 0 1 1 16.46,-16.46 16.46,16.46 0 0 1 -16.46,16.46 M 230.41,0 H 214 V 16.46 H 107 V 0 H 90.52 v 32.92 h 139.89 z"
         id="path843" />
    </g>
  </g>
</svg>
